src/assets/microphone.svg

<svg width="23" height="33" viewBox="0 0 23 33" fill="none" xmlns="http://www.w3.org/2000/svg">
<path d="M1.09766 16.7222C1.09766 19.7172 2.06057 22.5261 4.7111 24.6717C6.79213 26.3564 9.06949 26.8398 11.2153 26.8398M11.2153 26.8398L11.2153 31.176L15.5514 31.176L6.87917 31.1759M11.2153 26.8398C13.5666 26.8398 15.6385 26.3564 17.7195 24.6717C20.37 22.5261 21.333 19.5887 21.333 16.7222" stroke="#000000" stroke-width="1" stroke-linecap="round" stroke-linejoin="round"/>
<path d="M11.2152 1.82324C9.76705 1.82324 8.71142 2.18773 7.92059 2.74872C7.12222 3.31505 6.52284 4.13231 6.07881 5.14723C5.17509 7.21286 4.98828 9.92006 4.98828 12.3863C4.98828 14.8525 5.17509 17.5597 6.07881 19.6253C6.52284 20.6402 7.12222 21.4575 7.92058 22.0238C8.71142 22.5848 9.76705 22.9493 11.2152 22.9493C12.6633 22.9493 13.7189 22.5848 14.5098 22.0238C15.3081 21.4575 15.9075 20.6402 16.3515 19.6253C17.2553 17.5597 17.4421 14.8525 17.4421 12.3863C17.4421 9.92006 17.2553 7.21286 16.3515 5.14723C15.9075 4.13231 15.3081 3.31504 14.5098 2.74872C13.7189 2.18773 12.6633 1.82324 11.2152 1.82324Z" stroke="#000000" stroke-width="1" stroke-linecap="round" stroke-linejoin="round"/>
</svg>

<svg width="23" height="33" fill="none" xmlns="http://www.w3.org/2000/svg">
  <path d="M1.1 16.72c0 3 .96 5.8 3.61 7.95a9.96 9.96 0 0 0 6.5 2.17m0 0v4.34h4.34-8.67m4.34-4.34c2.35 0 4.42-.48 6.5-2.17a9.87 9.87 0 0 0 3.61-7.95M11.22 1.82c-1.45 0-2.5.37-3.3.93a5.6 5.6 0 0 0-1.84 2.4c-.9 2.06-1.1 4.77-1.1 7.24 0 2.46.2 5.17 1.1 7.24a5.6 5.6 0 0 0 1.84 2.4c.8.55 1.85.92 3.3.92 1.44 0 2.5-.37 3.29-.93a5.6 5.6 0 0 0 1.84-2.4c.9-2.06 1.1-4.77 1.1-7.23 0-2.47-.2-5.18-1.1-7.24a5.6 5.6 0 0 0-1.84-2.4 5.52 5.52 0 0 0-3.3-.93Z" stroke="#000" stroke-linecap="round" stroke-linejoin="round"/>
</svg>
